lib/logo_updates/nrk-logo-nrk-p3-urort.svg

<svg width="359" height="48" viewBox="0 0 359 48" fill="none" xmlns="http://www.w3.org/2000/svg">
<path d="M248.159 28.3889C248.185 30.1534 247.976 31.9134 247.538 33.623C247.189 35.0128 246.532 36.3064 245.616 37.4082C244.698 38.4478 243.527 39.2322 242.216 39.6852C240.588 40.2339 238.876 40.4941 237.159 40.454C235.158 40.4994 233.167 40.1476 231.303 39.419C229.665 38.7456 228.322 37.5077 227.518 35.9296C226.557 33.848 226.111 31.5661 226.216 29.276V3.01758H220.006V30.2854C219.94 32.7384 220.394 35.1777 221.338 37.4426C222.144 39.3106 223.405 40.9473 225.005 42.2036C226.615 43.4327 228.455 44.3275 230.417 44.8355C232.539 45.3961 234.727 45.6742 236.922 45.6625C240.22 45.7913 243.497 45.0789 246.444 43.5925C248.852 42.2913 250.787 40.2629 251.974 37.7965C253.231 35.0533 253.848 32.0601 253.777 29.0434V3.02054H248.158L248.159 28.3889Z" fill="white"/>
<path d="M274.951 14.6391C273.845 14.935 272.788 15.3934 271.817 15.9994C270.807 16.6288 269.875 17.3731 269.037 18.2173C268.897 18.3563 268.761 18.513 268.623 18.6589V14.2537L262.59 15.1409V45.008H268.623V22.6648C269.071 22.3513 269.535 22.0608 270.013 21.7944C270.605 21.4691 271.217 21.1826 271.846 20.9369C272.457 20.7003 273.078 20.4933 273.709 20.3159C274.358 20.1352 275.021 20.0066 275.69 19.9314C276.407 19.8528 277.129 19.833 277.849 19.8723L278.559 14.3139C277.347 14.2262 276.128 14.3361 274.951 14.6391Z" fill="white"/>
<path d="M309.431 13.4849L306.119 16.9802C305.684 16.6559 305.23 16.3577 304.759 16.0872C302.287 14.771 299.515 14.1192 296.716 14.1956C293.901 14.1317 291.118 14.8041 288.643 16.1463C286.358 17.4251 284.49 19.3346 283.261 21.6466C281.925 24.2405 281.264 27.1291 281.339 30.0459C281.263 32.9424 281.892 35.814 283.172 38.4136C283.511 39.0573 283.901 39.6731 284.338 40.2549L281.043 43.767L283.763 46.25L286.918 42.8414C287.372 43.1812 287.849 43.4904 288.345 43.767C290.759 45.0339 293.456 45.6646 296.181 45.5994C299.015 45.659 301.816 44.9867 304.314 43.6477C306.648 42.3583 308.566 40.4301 309.843 38.0893C311.235 35.4704 311.928 32.5366 311.854 29.5717C311.922 26.7479 311.282 23.9521 309.991 21.4396C309.64 20.796 309.239 20.1813 308.791 19.6012L312.209 15.9689L309.431 13.4849ZM288.791 23.7176C289.454 22.2365 290.559 20.9969 291.955 20.169C293.427 19.3519 295.091 18.9435 296.775 18.9861C298.113 18.9555 299.444 19.2074 300.678 19.7254C301.343 20.0244 301.957 20.4262 302.497 20.9162L288.737 35.7768C287.971 33.842 287.606 31.7713 287.667 29.691C287.597 27.6414 287.98 25.6016 288.791 23.7176ZM304.404 35.9C303.728 37.4294 302.604 38.7181 301.181 39.5964C299.754 40.4227 298.128 40.8424 296.479 40.8098C294.845 40.848 293.233 40.417 291.836 39.5679C291.443 39.3145 291.075 39.0237 290.737 38.6994L304.504 23.8359C304.709 24.3071 304.883 24.7911 305.025 25.2849C305.415 26.7203 305.604 28.2027 305.587 29.69C305.657 31.8233 305.253 33.9456 304.404 35.904V35.9Z" fill="white"/>
<path d="M331.786 14.6391C330.68 14.9352 329.624 15.3936 328.652 15.9994C327.643 16.6291 326.71 17.3733 325.872 18.2173C325.732 18.3563 325.596 18.513 325.458 18.6589V14.2537L319.426 15.1409V45.008H325.458V22.6648C325.906 22.3513 326.37 22.0608 326.848 21.7944C327.44 21.4691 328.052 21.1826 328.681 20.9369C329.293 20.7003 329.914 20.4933 330.544 20.3159C331.194 20.1354 331.856 20.0068 332.526 19.9314C333.242 19.8528 333.964 19.833 334.684 19.8723L335.394 14.3139C334.182 14.2263 332.963 14.3361 331.786 14.6391Z" fill="white"/>
<path d="M357.455 40.0706C357.178 40.1287 356.873 40.1889 356.538 40.247L355.533 40.4244C355.21 40.482 354.884 40.5215 354.556 40.5427C354.241 40.5634 353.944 40.5723 353.669 40.5723C352.763 40.5976 351.863 40.4155 351.037 40.04C350.327 39.7038 349.739 39.1563 349.352 38.4727C348.937 37.7016 348.734 36.8351 348.76 35.9601V19.5766H357.1L357.751 14.8452H348.76V5.49961L342.728 7.62874V14.8452H338.174L337.523 19.5766H342.728V37.2012C342.701 38.3767 342.881 39.5478 343.26 40.661C343.565 41.5417 344.037 42.3552 344.651 43.0563C345.213 43.6811 345.898 44.1843 346.662 44.5349C347.444 44.8941 348.268 45.1524 349.115 45.3037C349.954 45.4583 350.805 45.5375 351.658 45.5403C352.289 45.5403 352.909 45.5206 353.522 45.4821C354.135 45.4437 354.694 45.3836 355.208 45.3037C355.721 45.2239 356.203 45.1352 356.656 45.0386C357.109 44.942 357.494 44.8513 357.809 44.7714L358.165 39.8636C357.934 39.9514 357.697 40.0206 357.455 40.0706Z" fill="white"/>
<path d="M162.166 3.01733H149.212C149.212 3.01733 156.573 15.1013 156.656 15.2534C156.933 15.6028 157.088 16.0337 157.097 16.4798C157.106 16.9259 156.968 17.3625 156.704 17.7225L149.212 30.004H162.168C162.168 30.004 168.416 19.7877 169.27 18.3695C169.675 17.8261 169.892 17.1649 169.885 16.4871C169.879 15.8092 169.651 15.1521 169.236 14.6163C168.314 13.0469 168.312 13.048 162.166 3.01733Z" fill="white"/>
<path d="M147.538 3.01748H136V44.9939H147.538V3.01748Z" fill="white"/>
<path d="M202.743 9.97144C202.307 9.22872 198.451 3.01733 198.451 3.01733H170.722L176.779 13.1773H191.385L185.36 23.0539L192.076 34.3379L185.594 44.9907H197.432C199.335 41.8776 202.181 37.0619 202.775 36.0752C203.183 35.5299 203.401 34.8657 203.394 34.1849C203.388 33.504 203.158 32.844 202.741 32.3063C202.148 31.2949 198.978 26.2668 197.083 23.1715C197.083 23.1715 202.181 14.725 202.775 13.7383C203.183 13.1934 203.4 12.5298 203.394 11.8494C203.389 11.169 203.16 10.5092 202.743 9.97144Z" fill="white"/>
<path d="M176.07 24.4179C174.245 27.3986 171.193 32.3942 170.621 33.368C170.219 33.886 169.997 34.5218 169.991 35.1777C169.985 35.8336 170.195 36.4733 170.588 36.9986C171.16 37.9487 174.236 42.9839 176.07 45.9863C177.903 42.9868 180.98 37.9517 181.552 36.9986C181.944 36.4733 182.154 35.8336 182.148 35.1778C182.142 34.522 181.921 33.8862 181.519 33.368C180.947 32.3942 177.894 27.3986 176.07 24.4179Z" fill="white"/>
<path d="M0 45V3.00381H13.7802V45H0ZM32.5283 9.68773L40.4532 45H25.3721L15.9092 3.00381H24.3676C26.3072 2.97864 28.1892 3.66237 29.6607 4.92636C31.1347 6.13734 32.1473 7.81844 32.5283 9.68773ZM42.5233 45V3.00381H56.3035V45H42.5233ZM66.7116 18.9743C65.2267 18.9888 63.7656 18.6003 62.4839 17.8504C61.2193 17.1194 60.1688 16.0689 59.438 14.8041C58.6872 13.5222 58.2986 12.0607 58.3134 10.5751C58.2964 9.09861 58.6853 7.64583 59.438 6.3755C60.1766 5.12447 61.2259 4.08533 62.4839 3.35882C63.766 2.60976 65.2269 2.2213 66.7116 2.23484C68.1877 2.21895 69.6399 2.60775 70.9108 3.35882C72.1562 4.09169 73.1943 5.12996 73.9271 6.3755C74.6789 7.64618 75.0677 9.09873 75.0517 10.5751C75.0655 12.0605 74.6769 13.5218 73.9271 14.8041C73.202 16.0633 72.1627 17.113 70.9108 17.8504C69.6398 18.6029 68.1866 18.9918 66.7097 18.9743H66.7116ZM77.1807 45V3.00381H90.9621V45H77.1807ZM108.408 25.9538C108.447 25.9946 108.742 26.4776 109.295 27.403C109.848 28.3283 110.567 29.5114 111.454 30.952C112.341 32.392 113.277 33.9199 114.262 35.536C115.247 37.1521 116.174 38.6803 117.043 40.1202C117.908 41.5602 118.894 43.1867 120 45H104.859C103.912 43.4621 103.055 42.0721 102.286 40.83C101.517 39.5878 100.7 38.2471 99.8334 36.8077C98.9653 35.3698 98.1071 33.9699 97.2587 32.6081C96.4103 31.2464 95.6813 30.0536 95.0714 29.0297C94.459 28.0051 94.0348 27.3149 93.7989 26.9594C93.2139 26.0771 92.8677 25.058 92.7944 24.0019C92.853 22.9883 93.1791 22.0084 93.7397 21.1619C93.9762 20.7676 94.41 20.0675 95.0409 19.062C95.6717 18.0564 96.411 16.8637 97.2587 15.4835C98.1064 14.1034 98.9647 12.6936 99.8334 11.2543C100.702 9.81501 101.519 8.46432 102.286 7.20247C103.056 5.94193 103.914 4.54205 104.859 3.00285H120L108.289 22.1082C107.926 22.6755 107.722 23.3292 107.697 24.0019C107.736 24.7081 107.983 25.3871 108.406 25.9538H108.408Z" fill="white"/>
</svg>

<svg xmlns="http://www.w3.org/2000/svg" viewBox="0 0 359 48"><path fill="#fff" d="M248.159 28.389a19.907 19.907 0 0 1-.621 5.234 9.565 9.565 0 0 1-1.922 3.785 8.037 8.037 0 0 1-3.4 2.277c-1.628.549-3.34.81-5.057.769a15.144 15.144 0 0 1-5.856-1.035 7.41 7.41 0 0 1-3.785-3.49 14.31 14.31 0 0 1-1.302-6.653V3.018h-6.21v27.267a17.389 17.389 0 0 0 1.332 7.158 12.198 12.198 0 0 0 3.667 4.76 15.195 15.195 0 0 0 5.412 2.633c2.122.56 4.31.838 6.505.827a19.459 19.459 0 0 0 9.522-2.07 12.991 12.991 0 0 0 5.53-5.797 19.89 19.89 0 0 0 1.803-8.753V3.021h-5.619l.001 25.368ZM274.951 14.64a11.567 11.567 0 0 0-3.134 1.36 15.372 15.372 0 0 0-2.78 2.217c-.14.14-.276.296-.414.442v-4.405l-6.033.887v29.867h6.033V22.665c.448-.314.912-.604 1.39-.87a15.568 15.568 0 0 1 1.833-.858 20.584 20.584 0 0 1 1.863-.621 12.661 12.661 0 0 1 4.14-.444l.71-5.558a11.225 11.225 0 0 0-3.608.325ZM309.431 13.485l-3.312 3.495a13.643 13.643 0 0 0-1.36-.893 16.176 16.176 0 0 0-8.043-1.891 16.165 16.165 0 0 0-8.073 1.95 13.638 13.638 0 0 0-5.382 5.5 17.368 17.368 0 0 0-1.922 8.4 17.88 17.88 0 0 0 1.833 8.368c.339.643.729 1.26 1.166 1.84l-3.295 3.513 2.72 2.483 3.155-3.409c.454.34.931.65 1.427.926a16.037 16.037 0 0 0 7.836 1.832c2.834.06 5.635-.612 8.133-1.951a14.022 14.022 0 0 0 5.529-5.559 17.232 17.232 0 0 0 2.011-8.517 16.902 16.902 0 0 0-1.863-8.132 13.88 13.88 0 0 0-1.2-1.839l3.418-3.632-2.778-2.484Zm-20.64 10.233a7.858 7.858 0 0 1 3.164-3.549 9.439 9.439 0 0 1 4.82-1.183 9.525 9.525 0 0 1 3.903.74c.665.298 1.279.7 1.819 1.19l-13.76 14.86a15.314 15.314 0 0 1-1.07-6.085c-.07-2.05.313-4.09 1.124-5.973ZM304.404 35.9a8.276 8.276 0 0 1-3.223 3.696 9.027 9.027 0 0 1-4.702 1.214 8.556 8.556 0 0 1-4.643-1.242 7.306 7.306 0 0 1-1.099-.869l13.767-14.863c.205.471.379.955.521 1.449.39 1.435.579 2.918.562 4.405a14.433 14.433 0 0 1-1.183 6.214V35.9ZM331.786 14.64a11.593 11.593 0 0 0-3.134 1.36 15.428 15.428 0 0 0-2.78 2.217c-.14.14-.276.296-.414.442v-4.405l-6.032.887v29.867h6.032V22.665c.448-.314.912-.604 1.39-.87a15.568 15.568 0 0 1 1.833-.858 20.794 20.794 0 0 1 1.863-.621 12.72 12.72 0 0 1 4.14-.444l.71-5.558a11.228 11.228 0 0 0-3.608.325ZM357.455 40.07c-.277.059-.582.119-.917.177l-1.005.177a8.795 8.795 0 0 1-.977.119c-.315.02-.612.03-.887.03a5.958 5.958 0 0 1-2.632-.533 3.81 3.81 0 0 1-1.685-1.567 4.987 4.987 0 0 1-.592-2.513V19.577h8.34l.651-4.732h-8.991V5.5l-6.032 2.129v7.216h-4.554l-.651 4.732h5.205V37.2a10.02 10.02 0 0 0 .532 3.46c.305.88.777 1.694 1.391 2.395a6.162 6.162 0 0 0 2.011 1.479c.782.36 1.606.617 2.453.769.839.154 1.69.233 2.543.236.631 0 1.251-.02 1.864-.058a18.515 18.515 0 0 0 1.686-.178c.513-.08.995-.169 1.448-.265a31.13 31.13 0 0 0 1.153-.268l.356-4.907a4.638 4.638 0 0 1-.71.207ZM162.166 3.017h-12.954s7.361 12.084 7.444 12.236a2.04 2.04 0 0 1 .048 2.47l-7.492 12.281h12.956s6.248-10.216 7.102-11.635a3.098 3.098 0 0 0-.034-3.753c-.922-1.57-.924-1.568-7.07-11.599ZM147.538 3.017H136v41.977h11.538V3.017ZM202.743 9.971c-.436-.742-4.292-6.954-4.292-6.954h-27.729l6.057 10.16h14.606l-6.025 9.877 6.716 11.284-6.482 10.653h11.838c1.903-3.113 4.749-7.93 5.343-8.916a3.111 3.111 0 0 0-.034-3.769c-.593-1.011-3.763-6.04-5.658-9.135 0 0 5.098-8.446 5.692-9.433a3.105 3.105 0 0 0-.032-3.767Z"/><path fill="#fff" d="M176.07 24.418c-1.825 2.98-4.877 7.976-5.449 8.95a2.998 2.998 0 0 0-.033 3.63c.572.95 3.648 5.986 5.482 8.988 1.833-3 4.91-8.034 5.482-8.987a3 3 0 0 0-.033-3.631c-.572-.974-3.625-5.97-5.449-8.95ZM0 45V3.004h13.78V45H0ZM32.528 9.688 40.453 45h-15.08L15.908 3.004h8.459a7.965 7.965 0 0 1 5.293 1.922 8.31 8.31 0 0 1 2.867 4.762ZM42.523 45V3.004h13.78V45h-13.78Zm24.189-26.026a8.213 8.213 0 0 1-4.228-1.124 8.336 8.336 0 0 1-3.046-3.046 8.206 8.206 0 0 1-1.125-4.229 8.056 8.056 0 0 1 1.125-4.2 8.437 8.437 0 0 1 3.046-3.016 8.232 8.232 0 0 1 4.228-1.124 8.083 8.083 0 0 1 4.199 1.124 8.503 8.503 0 0 1 3.016 3.016 8.075 8.075 0 0 1 1.125 4.2 8.226 8.226 0 0 1-1.125 4.23 8.4 8.4 0 0 1-3.016 3.045 8.059 8.059 0 0 1-4.201 1.124h.002ZM77.18 45V3.004h13.781V45H77.181Zm31.227-19.046c.039.04.334.524.887 1.449.553.925 1.272 2.108 2.159 3.549a1143.28 1143.28 0 0 1 5.589 9.168A854.89 854.89 0 0 0 120 45h-15.141c-.947-1.538-1.804-2.928-2.573-4.17a382.214 382.214 0 0 1-2.453-4.022 351.934 351.934 0 0 0-2.574-4.2 213.445 213.445 0 0 1-2.188-3.578 62.753 62.753 0 0 0-1.272-2.07 6.119 6.119 0 0 1-1.005-2.958 5.744 5.744 0 0 1 .946-2.84c.236-.394.67-1.095 1.3-2.1.632-1.006 1.371-2.198 2.219-3.579a636.03 636.03 0 0 0 2.574-4.229c.869-1.439 1.686-2.79 2.453-4.052.77-1.26 1.628-2.66 2.573-4.2H120l-11.711 19.106a3.773 3.773 0 0 0-.592 1.894c.039.706.286 1.385.709 1.952h.002Z"/></svg>
